!!!!SEGMENT: pl-kk--kk-i-111--004-001_anonim--deo-gratias-de-passione-1mum.krn
!!!cenid: 18xx:2560
!!!COM: Anonim
!!!COM-rismid: pe30004985
!!!CDT:
!!!CNT:
!!!GTL: Deo gratias
!!!OTL: De Passione 1mum
!!!OMV: 001
!!!PDT: 1824
!!!AGN: Sacred
!!!SMS-siglum: PL-Kk
!!!SMS-shelfmark: Kk.I.111
!!!SMS-shelfwork: 004-001 G
!!!SMS-variant:
!!!SMS-altvar:
!!!NIFC-rismid: 1001157674
!!!URL-scan: http://repozytorium.nifc.pl/skany/pl-kk-nut--i-111
!!!ONB-nifc: UWAGA: A, T1, T2. Podział na poszególne Deo gratias. A: skan 0002 (m.in)
**kern	**text	**kern	**text	**kern	**text
*part3	*part3	*part2	*part2	*part1	*part1
*staff3	*staff3	*staff2	*staff2	*staff1	*staff1
*Itenor	*	*Itenor	*	*Ialto	*
*I"Tenore Vagante.	*	*I"Tenore Chorale.	*	*I"Alto.	*
*I'T 2	*	*I'T 1	*	*I'A	*
*clefC4	*	*clefC4	*	*clefC3	*
*k[b-]	*	*k[b-]	*	*k[]	*
*f:	*	*f:	*	*f:	*
*M2/1	*	*M2/1	*	*M2/1	*
*met(C|)	*	*met(C|)	*	*met(C|)	*
*all\right	*	*	*	*all\right	*
=1-	=1-	=1-	=1-	=1-	=1-
!LO:TX:t=P:problem:kreska pseudotaktowa	!	!	!	!	!
!	!	!LO:TX:t=P:problem:kreska pseudotaktowa	!	!	!
1A	De-	1F	De-	1.f	De-
!	!	!LO:TX:t=P:problem:kreska pseudotaktowa	!	!	!
2G/	-o	1G	.	.	.
*	*	*	*	*2\right	*
!	!	!	!	!LO:TX:t=P:problem:kreska pseudotaktowa	!
!LO:TX:t=P:problem:kreska pseudotaktowa	!	!	!	!	!
2r	.	.	.	2e\	.
=2-	=2-	=2-	=2-	=2-	=2-
*2\right	*	*	*	*	*
!	!	!LO:TX:t=P:problem:kreska pseudotaktowa	!	!LO:TX:t=P:problem:kreska pseudotaktowa	!
2.A\	gra-	1A	-o	1f	-o
!LO:TX:t=P:problem:kreska pseudotaktowa	!	!	!	!	!
4A\	-ti-	.	.	.	.
!	!	!LO:TX:t=P:problem:kreska pseudotaktowa	!	!	!
2B-X\	-as	1G	.	2.g\	gra-
!LO:TX:t=P:problem:kreska pseudotaktowa	!	!	!	!	!
2B-\	De-	.	.	.	.
.	.	.	.	8f\L	.
!	!	!	!	!LO:TX:t=P:problem:kreska pseudotaktowa	!
.	.	.	.	8g\J	.
=3-	=3-	=3-	=3-	=3-	=3-
!LO:TX:t=P:problem:kreska pseudotaktowa	!	!LO:TX:t=P:problem:kreska pseudotaktowa	!	!	!
1F	-o	1A	.	2f\	.
!	!	!	!	!LO:TX:t=P:problem:kreska pseudotaktowa	!
.	.	.	.	2a\	.
!	!	!LO:TX:t=P:problem:kreska pseudotaktowa	!	!	!
4D/	gra-	1B-X	.	2.d\	.
4E/	.	.	.	.	.
4F/	.	.	.	.	.
!LO:TX:t=P:problem:kreska pseudotaktowa	!	!	!	!LO:TX:t=P:problem:kreska pseudotaktowa	!
4G/	.	.	.	4e\	.
=4-	=4-	=4-	=4-	=4-	=4-
!	!	!LO:TX:t=P:problem:kreska pseudotaktowa	!	!	!
4A\	.	1A	.	1.f	.
4B-\	.	.	.	.	.
!LO:TX:t=P:problem:kreska pseudotaktowa	!	!	!	!	!
2c\	.	.	.	.	.
!LO:TX:t=P:problem:kreska pseudotaktowa:między nutą a kropką	!	!LO:TX:t=P:problem:kreska pseudotaktowa	!	!	!
1.c	.	1G	.	.	.
!	!	!	!	!LO:TX:t=P:problem:kreska pseudotaktowa	!
.	.	.	.	2e\	-ti-
=5-	=5-	=5-	=5-	=5-	=5-
!	!	!LO:TX:t=P:problem:kreska pseudotaktowa	!	!	!
.	.	1F	.	2f\	-as
!LO:TX:t=P:problem:kreska pseudotaktowa	!	!	!	!LO:TX:t=P:problem:kreska pseudotaktowa	!
2c\	-ti-	.	.	2r	.
!LO:TX:t=P:problem:kreska pseudotaktowa	!	!LO:TX:t=P:problem:kreska pseudotaktowa	!	!LO:TX:t=P:problem:kreska pseudotaktowa	!
1c	-as	1F	.	1a	De-
=6-	=6-	=6-	=6-	=6-	=6-
!	!	!LO:TX:t=P:problem:kreska pseudotaktowa	!	!LO:TX:t=P:problem:kreska pseudotaktowa	!
2r	.	1A	gra-	1f	-o
!LO:TX:t=P:problem:kreska pseudotaktowa:między nutą a kropką	!	!	!	!	!
2.f\	De-	.	.	.	.
!	!	!LO:TX:t=P:problem:kreska pseudotaktowa	!	!LO:TX:t=P:problem:kreska pseudotaktowa	!
.	.	1G	.	1g	gra-
4e\	-o	.	.	.	.
!LO:TX:t=P:problem:kreska pseudotaktowa:między nutą a kropką	!	!	!	!	!
[>2e\	.	.	.	.	.
=7-	=7-	=7-	=7-	=7-	=7-
!LO:N:xstem:cue	!	!LO:TX:t=P:problem:kreska pseudotaktowa	!	!LO:TX:t=P:problem:kreska pseudotaktowa	!
4e\]	.	1F	.	1d	.
4d\	.	.	.	.	.
1d	gra-	.	.	.	.
!	!	!LO:TX:t=P:problem:kreska pseudotaktowa	!	!	!
.	.	1E	.	2.e\	.
!LO:TX:t=P:problem:kreska pseudotaktowa	!	!	!	!	!
2c#X\	-ti-	.	.	.	.
!	!	!	!	!LO:TX:t=P:problem:kreska pseudotaktowa	!
.	.	.	.	4e\	-ti-
=8-	=8-	=8-	=8-	=8-	=8-
!LO:TX:t=P:problem:kreska pseudotaktowa	!	!LO:TX:t=P:problem:kreska pseudotaktowa	!	!	!
0d	-as	1F	.	2d\	-as
!	!	!	!	!LO:TX:t=P:problem:kreska pseudotaktowa	!
.	.	.	.	2d\	De-
!	!	!LO:TX:t=P:problem:kreska pseudotaktowa	!	!	!
.	.	1D	.	4d\	-o
.	.	.	.	4e\	.
.	.	.	.	4f\	.
!	!	!	!	!LO:TX:t=P:problem:kreska pseudotaktowa	!
.	.	.	.	4e\	.
=9-	=9-	=9-	=9-	=9-	=9-
!	!	!LO:TX:t=P:problem:kreska pseudotaktowa	!	!	!
4A\	De-	1F	.	2.f\	.
4B-\	.	.	.	.	.
!LO:TX:t=P:problem:kreska pseudotaktowa	!	!	!	!	!
2cny\	.	.	.	.	.
!	!	!	!	!LO:TX:t=P:problem:kreska pseudotaktowa	!
.	.	.	.	4e\	gra-
!	!	!LO:TX:t=P:problem:kreska pseudotaktowa	!	!	!
2G/	-o	1E	.	2.g\	.
!LO:TX:t=P:problem:kreska pseudotaktowa	!	!	!	!	!
2r	.	.	.	.	.
!	!	!	!	!LO:TX:t=P:problem:kreska pseudotaktowa	!
.	.	.	.	4f\	.
=10-	=10-	=10-	=10-	=10-	=10-
!LO:TX:t=P:problem:kreska pseudotaktowa	!	!LO:TX:t=P:problem:kreska pseudotaktowa	!	!LO:TX:t=P:problem:kreska pseudotaktowa	!
0c	gra-	1G	.	1e	.
!	!	!LO:TX:t=P:problem:kreska pseudotaktowa	!	!LO:TX:t=P:problem:kreska pseudotaktowa	!
.	.	1A	.	1f	.
=11-	=11-	=11-	=11-	=11-	=11-
!	!	!LO:TX:t=P:problem:kreska pseudotaktowa	!	!	!
1.c	.	1G	.	1.f	.
.	.	2.E/	.	.	.
!LO:TX:t=P:problem:kreska pseudotaktowa	!	!	!	!LO:TX:t=P:problem:kreska pseudotaktowa	!
2c\	-ti-	.	.	2e\	-ti-
!	!	!LO:TX:t=P:problem:kreska pseudotaktowa	!	!	!
.	.	4E/	-ti-	.	.
=12-	=12-	=12-	=12-	=12-	=12-
0c;>	-as.	0F;>	-as.	0f;>	-as
=-	=-	=-	=-	=-	=-
*-	*-	*-	*-	*-	*-
!!!system-decoration: [(s1,s2,s3)]
!!!RDF**kern: < = below
!!!RDF**kern: > = above
!!!AIN: 1 alto 2 tenor
!!!ENC: Marta Chmielewska
!!!END: 2021-08-04
!!!ENC: Tomasz Grochalski
!!!END: 2021-07-09
